X:116
T:Helvic Head
R:jig
M:6/8
L:1/8
K:Gmaj
G3 AGE | A3 AGE | G3 AGE | GAB GED |
G3 AGE | ABA ABc | BAG AGE | GAB GED :|
BGG AGG | BGG AGE | BGG AGE | G2 A GED |
BGG cAA | dBB eAA | BGG AGE | G2 A GED :|
gfg dBG | ABA ABd | gfg dBG | dgf g2 a |
bag agf | gfe dBG | BAG AGE | G2 A GED :|
G2 c BGd | BGd AFD | G2 c BGd | AFD GED |
G2 c BGd | BGd ABc | BAG AGE | G2 A GED :|
DED DED | ABA AGE | DED DED | GAG GED |
DED DED | A3 ABc | BAG AGE | GAB GED :|

